X: 12059
T: Escape From Balto
R: jig
M: 6/8
K: Cdorian
|:cdB ~c3|ceg gfe|d/e/fB cBA|Bdf fed|
ecc fed|egc' bab|c'ba fdB|1 GAB ced:|2 GAB cef||
|:gc'c' gbb|c'ba bgf|~e3 cde|d/e/fd Bdf|
[1 gc'c' gbb|gc'a ~b3|c'bg fdB|ded cef:|
[2 ecc fed|efg ~a3|gfe fdB|GAB ced||

